X:1
T:Gehpolka
C:traditionell
A:Boehmerwald
%%textfont Helvetica-Narrow 10pt
%%begintext align
B:"(1.) Spielheft fuer Okarina", Zusammenstellung: Volker Derschmidt, Herausgeber: Oberoesterreichische Landesarbeitsgemeinschaft fuer Volkslied/Volksmusik/Volkstanz, Linz 1992
%%endtext
Z:abc transcription Simon Wascher
M:2/4
L:1/8
K:G
b2 gd | e2 dB | ed cd | f2 f2 |
ed cd | f2 f2 | ed Bd | g2 g2 :|
|:\
ed cd | f2 f2 | ed Bd | g2 g2 |
ed cd | f2 f2 | ed Bd | g2 g2 :|
|:\
b2 gd | e2 z2 | z4 | z4 |
z4 | f2 f2 | g2 g2 | g2 z2 :|
|:\
bb ag | f2 c2 | ff d2 | ed B2 |
bb ag | f2 c2 | de/d/ c/d/e/f/ | gg g2 :|
%%wordsfont Times-Italic 11pt
W:aus Simon Waschers TradArchiv
